icon-themes/colibre_svg/cmd/lc_renameslide.svg

<svg viewBox="0 0 24 24" xmlns="http://www.w3.org/2000/svg"><path d="m3 7v13h11 2v-6h-2.035156c-1.071781 0-1.964844-.893061-1.964844-1.964844v-.070312c0-1.071781.893063-1.964844 1.964844-1.964844h7.035156v-3zm17 7v6h1v-6z" fill="#fff"/><path d="m2 6v15h1 8.585938.697265c.350348-.592057.990063-1 1.716797-1h-1.414062-9.585938v-13h18v3h1v-3-1zm19 8v6h1v-6z" fill="#808080"/><path d="m1 3h22v2h-22z" fill="#4d82b8"/><path d="m5 9v2h7.269531c.341739-.590972.974205-1 1.695313-1h5.035156v-1z" fill="#eac282"/><path d="m5 12v1h6v-1zm0 2v1h6v-1zm8 0v1h3v-1h-2.035156zm-8 2v1h6v-1zm8 0v1h3v-1zm-8 2v1h6v-1zm8 0v1h3v-1z" fill="#808080"/><path d="m13.964844 11c-.534081 0-.964844.430763-.964844.964844v.07031c0 .534083.430763.964846.964844.964846h3.035156v8h-3c-.554 0-1 .446-1 1s.446 1 1 1h8c.554 0 1-.446 1-1s-.446-1-1-1h-3v-8h3.035156c.534081 0 .964844-.430763.964844-.964844v-.07031c0-.534083-.430763-.964846-.964844-.964846z" fill="#4d82b8"/></svg>

<svg viewBox="0 0 24 24" xmlns="http://www.w3.org/2000/svg">
 <path d="M 3 7 L 3 20 L 14 20 L 16 20 L 16 14 L 13.964844 14 C 12.893063 14 12 13.106939 12 12.035156 L 12 11.964844 C 12 10.893063 12.893063 10 13.964844 10 L 21 10 L 21 7 L 3 7 z M 20 14 L 20 20 L 21 20 L 21 14 L 20 14 z " fill="#ffffff" />
 <path d="M 2 6 L 2 21 L 3 21 L 11.585938 21 L 12.283203 21 C 12.633551 20.407943 13.273266 20 14 20 L 12.585938 20 L 3 20 L 3 7 L 21 7 L 21 10 L 22 10 L 22 7 L 22 6 L 2 6 z M 21 14 L 21 20 L 22 20 L 22 14 L 21 14 z " fill="#808080" />
 <path d="m1 3h22v2h-22z" fill="#4d82b8" />
 <path d="M 5 9 L 5 11 L 12.269531 11 C 12.61127 10.409028 13.243736 10 13.964844 10 L 19 10 L 19 9 L 5 9 z " fill="#eac282" />
 <path d="M 5 12 L 5 13 L 11 13 L 11 12 L 5 12 z M 5 14 L 5 15 L 11 15 L 11 14 L 5 14 z M 13 14 L 13 15 L 16 15 L 16 14 L 13.964844 14 L 13 14 z M 5 16 L 5 17 L 11 17 L 11 16 L 5 16 z M 13 16 L 13 17 L 16 17 L 16 16 L 13 16 z M 5 18 L 5 19 L 11 19 L 11 18 L 5 18 z M 13 18 L 13 19 L 16 19 L 16 18 L 13 18 z " fill="#808080"/>
 <path d="M 13.964844,11 C 13.430763,11 13,11.430763 13,11.964844 v 0.07031 C 13,12.569237 13.430763,13 13.964844,13 H 17 v 8 h -3 c -0.554,0 -1,0.446 -1,1 0,0.554 0.446,1 1,1 h 8 c 0.554,0 1,-0.446 1,-1 0,-0.554 -0.446,-1 -1,-1 h -3 v -8 h 3.035156 C 22.569237,13 23,12.569237 23,12.035156 v -0.07031 C 23,11.430763 22.569237,11 22.035156,11 Z" fill="#4d82b8"/>
</svg>
